X: 19969
T: Jim Coleman's
R: reel
M: 4/4
K: Gdorian
AGdG AGdc|A~D3 FAcA|AGdG Acde|fdcA AG G2|
AGdG Afdc|A~D3 F2FA|GFDE F2de|fdcA AG G2||
d~g3 afgf|fdcA FGAc|dggd fgaf|fdcA AG G2|
g2dg g2ga|fdcA F2Ac|dGAG dfgf|fdcA AG G2||

